frontend/public/svg/interface/camera.svg

<svg width="184" height="141" viewBox="0 0 184 141" fill="none" xmlns="http://www.w3.org/2000/svg">
<g clip-path="url(#clip0)">
<path d="M182.942 88.5404C182.904 85.1616 182.865 81.6723 182.769 78.2389C182.732 76.9498 182.704 75.6587 182.679 74.3676C182.593 70.1591 182.504 65.8082 182.051 61.5545C181.6 57.3193 180.974 53.0374 180.371 48.8964C179.746 44.608 179.099 40.1797 178.647 35.8081C177.577 25.4767 170.095 14.8097 156.142 15.7636C151.276 15.9948 146.402 15.9184 141.546 15.5348C139.05 15.3906 136.47 15.2415 133.931 15.1798C132.244 15.1388 131.079 14.4169 129.908 12.6886C128.444 10.5307 126.89 8.38864 125.386 6.31715C124.765 5.46032 124.146 4.60285 123.528 3.74472C121.871 1.43479 119.634 0.473538 116.305 0.614538C105.343 1.09017 95.4452 1.38986 86.046 1.52891C81.2601 1.60429 76.3769 1.28459 71.8097 0.93371C66.515 0.532804 62.4602 2.29163 59.0773 6.48784C56.9474 8.99273 54.6373 11.3383 52.1655 13.5056C51.342 14.2639 50.5198 15.0206 49.7125 15.7899C49.2646 16.16 48.7664 16.4646 48.2329 16.6945L47.9733 16.8245L47.8436 16.3696C47.6314 15.6145 47.4542 14.9791 47.2595 14.3488C45.5937 8.87584 42.6397 6.72692 37.1413 6.88156C33.3483 6.99852 29.6176 7.33134 26.151 7.67441C24.449 7.77123 22.8202 8.40079 21.4948 9.47434C20.1694 10.5478 19.2142 12.0112 18.7641 13.6575C18.3191 15.2366 17.976 16.8426 17.7368 18.4657C17.6271 19.1077 17.5162 19.762 17.3904 20.4293L17.0659 20.5594C16.4818 20.7914 15.8212 21.0545 15.1735 21.3761C9.17021 24.3605 5.64524 27.9195 4.07676 32.5764C2.93074 35.9844 2.69579 39.7237 2.61142 43.2611C2.20973 60.105 1.9015 77.2331 1.60364 93.7964L1.3778 106.272C1.15781 118.241 4.54658 126.87 12.0437 133.436C14.7692 135.819 17.2268 137.606 20.3786 138.578C26.2191 140.38 32.1315 140.668 37.9278 140.668C39.3016 140.668 40.6689 140.652 42.0284 140.636C73.2776 140.265 100.62 139.885 125.619 139.475C137.245 139.28 147.701 138.948 157.581 138.45C161.071 138.269 164.515 137.578 167.805 136.397C176.695 133.178 184.568 120.033 183.704 109.857C183.102 102.783 183.02 95.543 182.942 88.5404ZM11.6933 39.2787C11.6336 33.933 12.8484 30.7664 19.6525 28.2973C23.7278 26.8171 28.2703 26.2832 32.6636 25.7712C33.9303 25.6224 35.1945 25.4741 36.4482 25.3045C38.628 25.0101 40.8766 24.8609 43.0512 24.716C45.1232 24.5782 47.2654 24.4357 49.366 24.168C50.3465 24.0433 52.8112 23.5918 54.5224 22.1071C58.2232 18.9009 61.7538 15.5032 65.1001 11.9277C66.9225 9.97843 68.5877 9.17356 70.8291 9.17356H70.9154C81.5736 9.27038 91.4867 9.2722 101.221 9.17928C105.977 9.13445 110.668 8.78948 114.224 8.49904C115.099 8.3761 115.99 8.51054 116.79 8.8861C117.59 9.26161 118.263 9.86193 118.728 10.614C121.166 14.1039 123.137 16.9747 124.93 19.6498C125.631 20.7808 126.608 21.7148 127.768 22.3643C128.929 23.014 130.235 23.3578 131.565 23.3637C134.819 23.4755 138.071 23.6112 141.324 23.7477C146.3 23.9556 151.448 24.1706 156.509 24.2895C164.214 24.4695 168.611 28.0206 169.58 34.8432C169.998 37.7828 170.452 40.766 170.891 43.651C172.86 56.5814 174.896 69.9492 174.21 83.3708C173.865 90.12 174.118 96.9971 174.362 103.649C174.454 106.191 174.551 108.821 174.612 111.401C174.796 119.13 169.68 126.822 163.206 128.551C160.02 129.304 156.757 129.679 153.483 129.668C140.167 129.952 126.804 130.089 113.882 130.222C109.458 130.267 104.96 130.254 100.609 130.243C98.5984 130.238 96.5874 130.235 94.577 130.233C94.4887 130.232 94.4017 130.249 94.3206 130.283C94.2395 130.316 94.1655 130.365 94.1039 130.428C94.0896 130.441 94.0766 130.455 94.0643 130.471C89.5367 130.523 85.009 130.576 80.4814 130.632C67.2068 130.791 53.4802 130.957 39.9798 131.052C36.3445 131.035 32.7131 130.818 29.1017 130.402C21.0471 129.55 13.657 122.53 12.629 114.751C11.8721 108.494 11.4503 102.199 11.3656 95.8964C11.1923 88.5937 11.2598 81.1571 11.3253 73.966L11.3552 70.6067C11.387 66.8108 11.4564 62.9495 11.5239 59.2153C11.6459 52.6825 11.7679 45.9258 11.6933 39.2787ZM24.6928 18.9065C24.9945 15.5277 25.6727 14.9277 28.7674 14.6242C30.5695 14.4481 32.419 14.3536 34.2075 14.2607C34.8071 14.2299 35.4064 14.1978 36.0057 14.1648C36.4807 14.1382 36.8915 14.1188 37.2484 14.1188C39.1173 14.1188 39.5125 14.6653 39.8441 17.6399L24.6928 18.9065Z" fill="black"/>
<path d="M72.8001 102.653C78.1532 105.001 83.9605 106.129 89.8023 105.954C90.4512 105.986 91.1021 106.001 91.7549 106.001C100.036 106.001 108.318 103.453 117.004 98.2403C119.228 96.8459 121.202 95.089 122.845 93.0422C127.796 87.0897 130.365 79.5868 130.697 70.1053C131.112 60.9132 128.352 51.8588 122.882 44.4653C120.109 40.7899 116.635 37.7014 112.662 35.3787C108.69 33.0559 104.296 31.545 99.7368 30.9331C94.08 30.1053 87.8204 31.2925 82.4446 32.5667C67.4321 36.1249 58.3854 44.9889 55.5547 58.9134C54.6533 63.3436 53.7636 68.5537 54.0012 73.6043C54.665 87.6368 60.9896 97.4106 72.8001 102.653ZM120.468 70.5608L120.553 70.5771C120.325 71.5998 120.123 72.6362 119.926 73.644C119.476 76.475 118.734 79.2528 117.714 81.9318C116.326 85.1923 114.119 88.0858 111.808 89.6718C102.194 96.2716 91.7134 98.3443 80.6529 95.8343C68.68 93.1176 61.9175 83.4237 63.0019 70.5303C63.4497 66.0384 64.2067 61.5828 65.2673 57.1954C67.0577 49.367 76.7119 40.3535 86.5329 40.3535C86.5874 40.3535 86.6445 40.3535 86.699 40.3535L87.2831 40.3591C92.8237 40.4131 98.0554 40.4647 103.128 42.5128C113.115 46.5453 118.605 54.1137 119.912 65.6499C119.995 66.6005 120.011 67.5556 119.958 68.5088C119.943 68.9741 119.929 69.44 119.929 69.9033C119.928 70.0585 119.982 70.2086 120.081 70.3289C120.179 70.4491 120.317 70.5309 120.468 70.5608Z" fill="black"/>
<path d="M139.757 47.9086C141.457 48.0802 143.186 48.2043 144.857 48.3252C145.593 48.3781 146.329 48.4324 147.064 48.4883H147.1C147.237 48.483 147.369 48.4358 147.479 48.3531C147.811 48.3531 148.144 48.355 148.477 48.3589C149.456 48.366 150.468 48.3731 151.472 48.3459C156.28 48.2107 158.665 46.0899 159.205 41.4687C159.499 39.0093 159.61 36.5316 159.538 34.0557C159.369 28.7665 157.346 26.6074 152.556 26.6074H152.538C148.145 26.6126 143.712 27.3871 139.42 28.137L137.68 28.4396C135.362 28.8367 133.864 30.8654 133.864 33.6074C133.875 36.7308 134.076 39.8506 134.464 42.9497C134.809 45.7983 136.739 47.6045 139.757 47.9086ZM141.267 34.1984C141.844 33.5409 143.159 33.2888 145.789 33.3427C146.001 33.3509 146.212 33.3704 146.421 33.4012C146.644 33.4297 146.867 33.4577 147.091 33.4662C149.321 33.5643 150.667 33.6241 151.079 34.0887C151.491 34.5533 151.388 35.8924 151.219 38.112C151.114 39.4901 151.045 40.4014 150.774 40.6463C150.504 40.8913 149.568 40.8988 148.157 40.9001H141.33L141.218 40.1993C141.115 39.5573 141.048 39.1393 140.987 38.7195C140.613 36.1627 140.694 34.8518 141.267 34.2007V34.1984Z" fill="black"/>
</g>
<defs>
<clipPath id="clip0">
<rect width="183" height="141" fill="white" transform="translate(0.777344)"/>
</clipPath>
</defs>
</svg>

<svg xmlns="http://www.w3.org/2000/svg" width="184" height="141" fill="none" viewBox="0 0 184 141"><g fill="#000" clip-path="url(#a)"><path d="M182.942 88.54c-.038-3.378-.077-6.868-.173-10.301q-.054-1.935-.09-3.871c-.086-4.209-.175-8.56-.628-12.813-.451-4.236-1.077-8.518-1.68-12.659-.625-4.288-1.272-8.716-1.724-13.088-1.07-10.331-8.552-20.998-22.505-20.044-4.866.23-9.74.154-14.596-.23-2.496-.143-5.076-.293-7.615-.354-1.687-.041-2.852-.763-4.023-2.491-1.464-2.158-3.018-4.3-4.522-6.372q-.931-1.285-1.858-2.572c-1.657-2.31-3.894-3.271-7.223-3.13-10.962.475-20.86.775-30.259.914-4.786.075-9.67-.244-14.236-.595-5.295-.401-9.35 1.358-12.733 5.554a67.4 67.4 0 0 1-6.911 7.018c-.824.758-1.646 1.515-2.453 2.284-.448.37-.947.675-1.48.905l-.26.13-.13-.455c-.212-.756-.389-1.39-.584-2.021-1.665-5.473-4.62-7.622-10.118-7.467-3.793.117-7.523.45-10.99.792a8.13 8.13 0 0 0-4.656 1.8 8.15 8.15 0 0 0-2.73 4.184 38 38 0 0 0-1.028 4.808c-.11.642-.22 1.296-.347 1.963l-.324.13a25 25 0 0 0-1.892.817c-6.004 2.984-9.529 6.543-11.097 11.2-1.146 3.408-1.381 7.148-1.466 10.685-.401 16.844-.71 33.972-1.007 50.535l-.226 12.476c-.22 11.969 3.169 20.598 10.666 27.164 2.725 2.383 5.183 4.17 8.335 5.142 5.84 1.802 11.753 2.09 17.549 2.09 1.374 0 2.74-.016 4.1-.032 31.25-.371 58.592-.751 83.591-1.161 11.626-.195 22.082-.527 31.962-1.025a35.7 35.7 0 0 0 10.224-2.053c8.89-3.219 16.763-16.364 15.899-26.54-.602-7.074-.684-14.314-.762-21.317M11.693 39.28c-.06-5.346 1.155-8.513 7.96-10.982 4.075-1.48 8.617-2.014 13.01-2.526 1.267-.149 2.532-.297 3.785-.466 2.18-.295 4.429-.444 6.603-.589 2.072-.138 4.214-.28 6.315-.548.98-.125 3.445-.576 5.156-2.06A141 141 0 0 0 65.1 11.929c1.823-1.95 3.488-2.754 5.73-2.754h.085c10.659.096 20.572.098 30.306.005 4.756-.045 9.447-.39 13.003-.68a4.55 4.55 0 0 1 4.504 2.115c2.438 3.49 4.409 6.36 6.202 9.036a7.85 7.85 0 0 0 6.635 3.714c3.254.111 6.506.247 9.759.384 4.976.208 10.124.423 15.185.541 7.705.18 12.102 3.732 13.071 10.554.418 2.94.872 5.923 1.311 8.808 1.969 12.93 4.005 26.298 3.319 39.72-.345 6.749-.092 13.626.152 20.278.092 2.542.189 5.172.25 7.752.184 7.729-4.932 15.421-11.406 17.15a41.7 41.7 0 0 1-9.723 1.117c-13.316.284-26.679.421-39.601.554-4.424.045-8.922.032-13.273.021q-3.016-.007-6.032-.01a.6.6 0 0 0-.256.05.64.64 0 0 0-.257.188q-6.79.077-13.583.161c-13.274.159-27 .325-40.501.42a99 99 0 0 1-10.878-.65c-8.055-.852-15.445-7.872-16.473-15.651a177 177 0 0 1-1.263-18.855c-.174-7.302-.106-14.739-.04-21.93l.03-3.36c.031-3.795.1-7.656.168-11.39.122-6.534.244-13.29.17-19.937m13-20.373c.301-3.378.98-3.978 4.074-4.282 1.803-.176 3.652-.27 5.44-.363q.9-.047 1.799-.096a23 23 0 0 1 1.242-.046c1.87 0 2.265.546 2.596 3.52z"/><path d="M72.8 102.653a39.4 39.4 0 0 0 17.002 3.301q.974.047 1.953.047c8.281 0 16.563-2.548 25.249-7.76a23.5 23.5 0 0 0 5.841-5.199c4.951-5.952 7.52-13.455 7.852-22.937a40.07 40.07 0 0 0-7.815-25.64 34.8 34.8 0 0 0-10.22-9.086 34.8 34.8 0 0 0-12.925-4.446c-5.657-.828-11.917.36-17.292 1.634-15.013 3.558-24.06 12.422-26.89 26.346-.902 4.43-1.791 9.64-1.554 14.691.664 14.033 6.989 23.807 18.8 29.049m47.668-32.092.085.016c-.228 1.023-.43 2.06-.627 3.067a41.7 41.7 0 0 1-2.212 8.288c-1.388 3.26-3.595 6.154-5.906 7.74-9.614 6.6-20.095 8.672-31.155 6.162-11.973-2.716-18.736-12.41-17.651-25.304a98 98 0 0 1 2.265-13.335c1.79-7.828 11.445-16.842 21.266-16.842h.166l.584.006c5.54.054 10.772.106 15.845 2.154 9.987 4.032 15.477 11.6 16.784 23.137.083.95.099 1.906.046 2.859-.015.465-.029.931-.029 1.394a.67.67 0 0 0 .539.657m19.288-22.651c1.7.171 3.429.295 5.1.416q1.104.08 2.207.163h.036a.67.67 0 0 0 .379-.135q.498 0 .998.006c.979.007 1.991.014 2.995-.013 4.808-.135 7.193-2.256 7.733-6.877a50 50 0 0 0 .333-7.413c-.169-5.29-2.192-7.449-6.982-7.449h-.018c-4.393.006-8.826.78-13.118 1.53l-1.74.303c-2.318.397-3.816 2.425-3.816 5.167a77 77 0 0 0 .6 9.343c.345 2.848 2.275 4.654 5.293 4.959m1.51-13.71c.577-.658 1.892-.91 4.522-.856q.318.012.632.058c.223.029.446.057.67.065 2.23.098 3.576.158 3.988.623s.309 1.803.14 4.023c-.105 1.378-.174 2.29-.445 2.534-.27.245-1.206.253-2.617.254h-6.827l-.112-.7c-.103-.643-.17-1.06-.231-1.48-.374-2.557-.293-3.868.28-4.52z"/></g><defs><clipPath id="a"><path fill="#fff" d="M.777 0h183v141h-183z"/></clipPath></defs></svg>
